img/stars4.svg

<svg xmlns="http://www.w3.org/2000/svg" width="140" height="37" fill="none"><g clip-path="url(#a)"><path fill="#83B3D3" d="m9 10 2.1 6.5H18l-5.6 4 2.2 6.5L9 23l-5.6 4 2.2-6.5-5.6-4h6.9L9 10Z"/></g><g clip-path="url(#b)"><path fill="#83B3D3" d="m33 10 2.1 6.5H42l-5.6 4 2.2 6.5-5.6-4-5.6 4 2.2-6.5-5.6-4h6.9L33 10Z"/></g><g clip-path="url(#c)"><path fill="#83B3D3" d="m57 10 2.1 6.5H66l-5.6 4 2.2 6.5-5.6-4-5.6 4 2.2-6.5-5.6-4h6.9L57 10Z"/></g><g clip-path="url(#d)"><path fill="#83B3D3" d="m81 10 2.1 6.5H90l-5.6 4 2.2 6.5-5.6-4-5.6 4 2.2-6.5-5.6-4h6.9L81 10Z"/></g><defs><clipPath id="a"><path fill="#fff" d="M0 10h18v17H0z"/></clipPath><clipPath id="b"><path fill="#fff" d="M24 10h18v17H24z"/></clipPath><clipPath id="c"><path fill="#fff" d="M48 10h18v17H48z"/></clipPath><clipPath id="d"><path fill="#fff" d="M72 10h18v17H72z"/></clipPath></defs></svg>

<svg width="140" height="37" viewBox="0 0 140 37" fill="none" xmlns="http://www.w3.org/2000/svg">
<g clip-path="url(#clip0_16_154)">
<path d="M9 10L11.1 16.5H18L12.4 20.5L14.6 27L9 23L3.4 27L5.6 20.5L0 16.5H6.9L9 10Z" fill="#83B3D3"/>
</g>
<g clip-path="url(#clip1_16_154)">
<path d="M33 10L35.1 16.5H42L36.4 20.5L38.6 27L33 23L27.4 27L29.6 20.5L24 16.5H30.9L33 10Z" fill="#83B3D3"/>
</g>
<g clip-path="url(#clip2_16_154)">
<path d="M57 10L59.1 16.5H66L60.4 20.5L62.6 27L57 23L51.4 27L53.6 20.5L48 16.5H54.9L57 10Z" fill="#83B3D3"/>
</g>
<g clip-path="url(#clip3_16_154)">
<path d="M81 10L83.1 16.5H90L84.4 20.5L86.6 27L81 23L75.4 27L77.6 20.5L72 16.5H78.9L81 10Z" fill="#83B3D3"/>
</g>
<defs>
<clipPath id="clip0_16_154">
<rect width="18" height="17" fill="white" transform="translate(0 10)"/>
</clipPath>
<clipPath id="clip1_16_154">
<rect width="18" height="17" fill="white" transform="translate(24 10)"/>
</clipPath>
<clipPath id="clip2_16_154">
<rect width="18" height="17" fill="white" transform="translate(48 10)"/>
</clipPath>
<clipPath id="clip3_16_154">
<rect width="18" height="17" fill="white" transform="translate(72 10)"/>
</clipPath>
</defs>
</svg>
